packages/ffe-icons/icons/open/300/md/smart_toy.svg

<svg xmlns="http://www.w3.org/2000/svg" height="24" viewBox="0 -960 960 960" width="24"><path d="M180.001-380.001q-41.922 0-70.96-29.038Q80.003-438.078 80.003-480t29.038-70.961q29.038-29.038 70.96-29.038v-87.692q0-29.827 21.241-51.067 21.24-21.241 51.067-21.241h127.692q0-41.922 29.038-70.96 29.039-29.038 70.961-29.038t70.961 29.038q29.038 29.038 29.038 70.96h127.692q29.827 0 51.067 21.241 21.241 21.24 21.241 51.067v87.692q41.922 0 70.96 29.038 29.038 29.039 29.038 70.961t-29.038 70.961q-29.038 29.038-70.96 29.038v167.692q0 29.827-21.241 51.067-21.24 21.241-51.067 21.241H252.309q-29.827 0-51.067-21.241-21.241-21.24-21.241-51.067v-167.692Zm179.954-70q20.814 0 35.429-14.57 14.615-14.57 14.615-35.384t-14.57-35.429q-14.57-14.615-35.384-14.615t-35.429 14.57q-14.615 14.57-14.615 35.384t14.57 35.429q14.57 14.615 35.384 14.615Zm240 0q20.814 0 35.429-14.57 14.615-14.57 14.615-35.384t-14.57-35.429q-14.57-14.615-35.384-14.615t-35.429 14.57q-14.615 14.57-14.615 35.384t14.57 35.429q14.57 14.615 35.384 14.615ZM360-290.001h240q12.75 0 21.375-8.628 8.624-8.629 8.624-21.384 0-12.756-8.624-21.371-8.625-8.615-21.375-8.615H360q-12.75 0-21.374 8.628-8.625 8.629-8.625 21.384 0 12.756 8.625 21.371 8.624 8.615 21.374 8.615ZM252.309-200h455.382q5.385 0 8.847-3.462 3.462-3.462 3.462-8.847v-455.382q0-5.385-3.462-8.847-3.462-3.462-8.847-3.462H252.309q-5.385 0-8.847 3.462-3.462 3.462-3.462 8.847v455.382q0 5.385 3.462 8.847 3.462 3.462 8.847 3.462ZM480-440Z"/></svg>

<svg xmlns="http://www.w3.org/2000/svg" height="24" viewBox="0 -960 960 960" width="24"><path d="M180-380q-41.92 0-70.96-29.04Q80-438.08 80-480q0-41.92 29.04-70.96Q138.08-580 180-580v-87.69q0-29.83 21.24-51.07Q222.48-740 252.31-740H380q0-41.92 29.04-70.96Q438.08-840 480-840q41.92 0 70.96 29.04Q580-781.92 580-740h127.69q29.83 0 51.07 21.24Q780-697.52 780-667.69V-580q41.92 0 70.96 29.04Q880-521.92 880-480q0 41.92-29.04 70.96Q821.92-380 780-380v167.69q0 29.83-21.24 51.07Q737.52-140 707.69-140H252.31q-29.83 0-51.07-21.24Q180-182.48 180-212.31V-380Zm179.95-70q20.82 0 35.43-14.57Q410-479.14 410-499.95q0-20.82-14.57-35.43Q380.86-550 360.05-550q-20.82 0-35.43 14.57Q310-520.86 310-500.05q0 20.82 14.57 35.43Q339.14-450 359.95-450Zm240 0q20.82 0 35.43-14.57Q650-479.14 650-499.95q0-20.82-14.57-35.43Q620.86-550 600.05-550q-20.82 0-35.43 14.57Q550-520.86 550-500.05q0 20.82 14.57 35.43Q579.14-450 599.95-450ZM360-290h240q12.75 0 21.37-8.63 8.63-8.63 8.63-21.38 0-12.76-8.63-21.37Q612.75-350 600-350H360q-12.75 0-21.37 8.63-8.63 8.63-8.63 21.38 0 12.76 8.63 21.37Q347.25-290 360-290Zm-107.69 90h455.38q5.39 0 8.85-3.46t3.46-8.85v-455.38q0-5.39-3.46-8.85t-8.85-3.46H252.31q-5.39 0-8.85 3.46t-3.46 8.85v455.38q0 5.39 3.46 8.85t8.85 3.46ZM480-440Z"/></svg>
